X:72
T:Duke Of Leinster, The
R:reel
S:https://thesession.org/tunes/1385
M:4/4
L:1/8
Z:gian marco
K:Gmajor
D|:G2BG dGBc|dgeg dBAF|G2(3BAG dGBG|DBAB GEDE|
GABG dGBc|dgeg dBAF|GB~B2 GB~B2|1dBAB GEDE:|2dBAB GEDz||
|:dg~g2 bg~g2|agbg ageg|dega bgge|dBAB GEDz|
dega bg~g2|agbg agef|gbag efge|1dBAB GEDz:|2dBAB GEDE||

